X: 131
T:Muiñeira de Carballo
M:6/8
L:1/8
Q:200
C:Trad
R:Muiñeira
K:C
cB | GEF GAG | c2 G2 EF | GAG FED | ED C2 cB | GEF GAG | c2 G2 EF |GAG F
ED |1 {B,}C4 :|2 {B,}C3"F."c EF |: G>cG {A} GFG | A>cA {B}AGA | BcB {C}B
cB | "~"A2 G2 EF | G>cG {A}GFG | A>cA {B}AGA | BcB AGF |1 E3"F."c EF :|2
 E6 |: GAG DEF | GAG DEF | GAG/"F."c/ GAB | cBc G2c | GAG DEF | GAG DEF
| GAG FGF |1 E6:|2 E4 ||

